!!!COM: Music21
!!!OTL: march_Kenneth-J-MacLeod
!!!OMV: march_Kenneth-J-MacLeod
**kern
*clefG2
*k[f#c#g#]
*A:
*M4/4
=1
16ff#KL
8.eeJ
=
4.cc#
4.cc#
16bKL
8cc#J
16ryy
=
8.a
16cc#
8ff#
4ee
4.ryy
=
2.aa
[4ff#
=
*M5/16
8ff#L]
16eeK
8cc#J
=
*M4/4
8.cc#L
16bJk
8a
4b
8a
4ryy
=
4.cc#
4.cc#
16bKL
8cc#J
16ryy
!!linebreak:original
=
8.a
16cc#
8ff#
4ee
4.ryy
=
8ff#
8.aaL
8aa
8.ff#J
16eeKL
8cc#J
8.ryy
=
16bKL
8.cc#J
8a
4a
4.ryy
=||
*M4/4
16ff#KL
8.eeJ
=
4.cc#
4.cc#
16bKL
8cc#J
16ryy
=
8.a
16cc#
8ff#
4ee
4.ryy
!!linebreak:original
=
2.aa
[4ff#
=
*M5/16
8ff#L]
16eeK
8cc#J
=
*M4/4
8.cc#L
16bJk
8a
4b
8a
4ryy
=
4.cc#
4.cc#
16bKL
8cc#J
16ryy
=
8.a
16cc#
8ff#
4ee
4.ryy
=
8ff#
8.aaL
8aa
8.ff#J
16eeKL
8cc#J
8.ryy
!!linebreak:original
=
16bKL
8.cc#J
8a
4a
4.ryy
=||
8cc#L
8eeJ
2.ryy
=
4.ff#
4.ff#
16eeKL
8cc#J
16ryy
=
8.ee
16ff#
8cc#
4ee
4.ryy
=
2.aa
[4aa
=
*M5/16
8aaL]
16ff#K
8eeJ
=
*M4/4
8.ff#L
16eeJk
8aa
4ff#
8ee
4ryy
!!linebreak:original
=
16cc#KL
8.eeJ
8aL
16cc#K
8.ee
8ff#J
4ryy
=
8.cc#L
16eeJk
8ee
4ff#
8ee
4ryy
=
16ff#KL
8.aaJ
8aaL
8.ff#J
16eeKL
8cc#J
4ryy
=
16bKL
8.cc#J
8a
4a
4.ryy
=||
8cc#L
8eeJ
2.ryy
=
4.ff#
4.ff#
16eeKL
8cc#J
16ryy
!!linebreak:original
=
8.ee
16ff#
8cc#
4ee
4.ryy
=
2.aa
[4aa
=
*M5/16
8aaL]
16ff#K
8eeJ
=
*M4/4
8.ff#L
16eeJk
8aa
4ff#
8ee
4ryy
=
2.cc#
[4cc#
=
*M5/16
8cc#L]
16bK
8cc#J
=
*M4/4
8.a
16cc#
8ff#
4ee
4.ryy
!!linebreak:original
=
8ff#
8.aaL
8aa
8.ff#J
16eeKL
8cc#J
8.ryy
=
16bKL
8.cc#J
8a
4a
4.ryy
=||
4aa
2.ryy
=
4cc#
8cc#L
8.cc#J
16bKL
8aJ
4ryy
=
4ee
8ee
4ff#
8ee
4ryy
=
4aa
8aaL
8.ff#J
16eeKL
8cc#J
4ryy
!!linebreak:original
=
8.cc#L
16bJk
8a
4b
8a
4ryy
=
4cc#
8cc#L
8.cc#J
16bKL
8aJ
4ryy
=
4ee
8ee
4ff#
8ee
4ryy
=
16ff#KL
8.aaJ
8aaL
8.ff#J
16eeKL
8cc#J
4ryy
=
16bKL
8.cc#J
8a
4a
4.ryy
=||
4aa
2.ryy
!!linebreak:original
=
4cc#
8cc#L
8.cc#J
16bKL
8aJ
4ryy
=
4ee
8ee
4ff#
8ee
4ryy
=
4aa
8aaL
8.ff#J
16eeKL
8cc#J
4ryy
=
8.cc#L
16bJk
8a
4b
8a
4ryy
=
4cc#
8cc#L
8.cc#J
16bKL
8aJ
4ryy
=
4ee
8ee
4ff#
8ee
4ryy
!!linebreak:original
=
16ff#KL
8.aaJ
8aaL
8.ff#J
16eeKL
8cc#J
4ryy
=
16bKL
8.cc#J
8a
4a
4.ryy
=||
4aa
2.ryy
=
16cc#KL
8.eeJ
8aL
16cc#K
8.ee
8ff#J
4ryy
=
8.cc#L
16eeJk
8ee
4ff#
8ee
4ryy
=
16ff#KL
8.aaJ
8aL
8.ff#J
16aaKL
8aaJ
4ryy
!!pagebreak:original
=
16ff#KL
8.eeJ
8aa
4ff#
8ee
4ryy
=
16cc#KL
8.eeJ
8aL
16cc#K
8.ee
8ff#J
4ryy
=
8.cc#L
16eeJk
8ee
4ff#
8ee
4ryy
=
16ff#KL
8.aaJ
8aaL
8.ff#J
16eeKL
8cc#J
4ryy
=
16bKL
8.cc#J
8a
4a
4.ryy
=||
4aa
2.ryy
!!linebreak:original
=
16cc#KL
8.eeJ
8aL
16cc#K
8.ee
8ff#J
4ryy
=
8.cc#L
16eeJk
8ee
4ff#
8ee
4ryy
=
16ff#KL
8.aaJ
8aL
8.ff#J
16aaKL
8aaJ
4ryy
=
16ff#KL
8.eeJ
8aa
4ff#
8ee
4ryy
=
2cc#
8cc#L
8.cc#J
16bKL
8aJ
=
4ee
8ee
4ff#
8ee
4ryy
!!linebreak:original
=
16ff#KL
8.aaJ
8aaL
8.ff#J
16eeKL
8cc#J
4ryy
=
16bKL
8.cc#J
8a
4a
4.ryy
=||
*-
